X:21
T:Gregorian Rant
M:4/4
L:1/8
C:Taz Tarry
S:Copyright B.Tarry, 9th. July 1995
R:Rant
Q:1/4=150
K:D
|:D2 FA G2 BB|Acce f2f2|gfed c2e2|edcB AGFE|
D2 FA G2 BB|Acce f2f2|gfed cdef|1e2dcd2D2:|2e2dc sd2d2s||
|:f2f2f2f2|gfedc2e2|edcBA2F2|FGABA2d2|f2f2f2f2|
gfedc2e2|edcB ABce|1e2dc sd2d2s:|2e2dcd2 A2||

